icons/svg/volume-mute.svg

<svg width="24" height="24" viewBox="0 0 24 24" fill="none" xmlns="http://www.w3.org/2000/svg">
<path d="M12.2527 19.4008L7.99088 15.7813C7.81012 15.6277 7.58069 15.5435 7.34353 15.5435H4.75C3.64543 15.5435 2.75 14.648 2.75 13.5435V10.4565C2.75 9.35192 3.64543 8.45648 4.75 8.45648H7.34353C7.58068 8.45648 7.81012 8.3722 7.99088 8.21868L12.2527 4.59907C12.9022 4.04739 13.9 4.50904 13.9 5.36127V18.6386C13.9 19.4909 12.9022 19.9525 12.2527 19.4008Z" stroke="currentColor" stroke-width="1.5" stroke-linejoin="round"/>
<path d="M16.53 9.63989L21.25 14.3599M21.25 9.63989L16.53 14.3599" stroke="currentColor" stroke-width="1.5" stroke-linecap="round" stroke-linejoin="round"/>
</svg>

<svg xmlns="http://www.w3.org/2000/svg" width="24" height="24" fill="none" viewBox="0 0 24 24"><path stroke="currentColor" stroke-linejoin="round" stroke-width="1.5" d="M12.253 19.4 7.99 15.782a1 1 0 0 0-.647-.238H4.75a2 2 0 0 1-2-2v-3.086a2 2 0 0 1 2-2h2.594a1 1 0 0 0 .647-.238l4.262-3.62a1 1 0 0 1 1.647.762V18.64a1 1 0 0 1-1.647.762Z"/><path stroke="currentColor" stroke-linecap="round" stroke-linejoin="round" stroke-width="1.5" d="m16.53 9.64 4.72 4.72m0-4.72-4.72 4.72"/></svg>
